app/assets/images/icons/active/pinterest.svg

<?xml version="1.0" encoding="UTF-8" standalone="no"?>
<svg width="32px" height="232px" viewBox="0 0 32 232" version="1.1" xmlns="http://www.w3.org/2000/svg" xmlns:xlink="http://www.w3.org/1999/xlink" xmlns:sketch="http://www.bohemiancoding.com/sketch/ns">
    <title>pinterest</title>
    <description>Created with Sketch (http://www.bohemiancoding.com/sketch)</description>
    <defs></defs>
    <g id="Social" stroke="none" stroke-width="1" fill="none" fill-rule="evenodd" sketch:type="MSPage">
        <path d="M16.5660208,20.9394153 C15.1534386,20.8571151 14.3737835,20.313111 13.5368263,19.381473 C12.7502255,22.3195892 12.1129574,25.4050227 9.9103015,27 C9.27216509,24.1071489 10.1794475,21.4776584 10.7750414,19.0514493 C11.0910709,17.7568676 11.6432542,16.2927476 11.6397814,15.3652246 C11.6397814,14.9380867 11.3497983,14.5084798 11.2942327,14.0558289 C11.0684974,12.3390473 11.7292073,10.3424451 13.1964869,10.0387574 C15.8497452,9.4939303 15.6726298,11.9226084 15.1803532,13.644328 C14.6090691,15.6656202 13.3458195,18.5099142 16.2213403,18.8070178 C18.0055176,18.9921932 19.3000229,17.441658 19.7619121,16.5964352 C20.4356452,15.3759236 20.8185271,13.8558394 20.8037674,12.0896777 C20.7681707,9.1153495 18.6002434,7.21586152 15.2706473,7.17141943 C11.6432542,7.12368533 7.4680189,10.284012 8.78683414,14.5455149 C9.09591789,15.565214 10.3834775,16.4186668 9.22180875,17.7420536 C6.97140118,17.4194369 5.84880204,15.0121569 6.01636711,12.6616639 C6.34541976,8.25860471 10.1256183,5.46862886 14.7462468,5.04313697 C19.9025626,4.56414996 23.964062,8.14338447 23.9996587,12.3349323 C24.0343873,16.8639107 21.4175939,21.2134749 16.5660208,20.9394153 Z M16.5660208,20.9394153" id="pinterest--title-grey" fill="#3A434E" sketch:type="MSShapeGroup"></path>
        <path d="M16.5660208,60.9394153 C15.1534386,60.8571151 14.3737835,60.313111 13.5368263,59.381473 C12.7502255,62.3195892 12.1129574,65.4050227 9.9103015,67 C9.27216509,64.1071489 10.1794475,61.4776584 10.7750414,59.0514493 C11.0910709,57.7568676 11.6432542,56.2927476 11.6397814,55.3652246 C11.6397814,54.9380867 11.3497983,54.5084798 11.2942327,54.0558289 C11.0684974,52.3390473 11.7292073,50.3424451 13.1964869,50.0387574 C15.8497452,49.4939303 15.6726298,51.9226084 15.1803532,53.644328 C14.6090691,55.6656202 13.3458195,58.5099142 16.2213403,58.8070178 C18.0055176,58.9921932 19.3000229,57.441658 19.7619121,56.5964352 C20.4356452,55.3759236 20.8185271,53.8558394 20.8037674,52.0896777 C20.7681707,49.1153495 18.6002434,47.2158615 15.2706473,47.1714194 C11.6432542,47.1236853 7.4680189,50.284012 8.78683414,54.5455149 C9.09591789,55.565214 10.3834775,56.4186668 9.22180875,57.7420536 C6.97140118,57.4194369 5.84880204,55.0121569 6.01636711,52.6616639 C6.34541976,48.2586047 10.1256183,45.4686289 14.7462468,45.043137 C19.9025626,44.56415 23.964062,48.1433845 23.9996587,52.3349323 C24.0343873,56.8639107 21.4175939,61.2134749 16.5660208,60.9394153 Z M16.5660208,60.9394153" id="pinterest--title-grey-copy" fill="#67737B" sketch:type="MSShapeGroup"></path>
        <path d="M16.5660208,100.939415 C15.1534386,100.857115 14.3737835,100.313111 13.5368263,99.381473 C12.7502255,102.319589 12.1129574,105.405023 9.9103015,107 C9.27216509,104.107149 10.1794475,101.477658 10.7750414,99.0514493 C11.0910709,97.7568676 11.6432542,96.2927476 11.6397814,95.3652246 C11.6397814,94.9380867 11.3497983,94.5084798 11.2942327,94.0558289 C11.0684974,92.3390473 11.7292073,90.3424451 13.1964869,90.0387574 C15.8497452,89.4939303 15.6726298,91.9226084 15.1803532,93.644328 C14.6090691,95.6656202 13.3458195,98.5099142 16.2213403,98.8070178 C18.0055176,98.9921932 19.3000229,97.441658 19.7619121,96.5964352 C20.4356452,95.3759236 20.8185271,93.8558394 20.8037674,92.0896777 C20.7681707,89.1153495 18.6002434,87.2158615 15.2706473,87.1714194 C11.6432542,87.1236853 7.4680189,90.284012 8.78683414,94.5455149 C9.09591789,95.565214 10.3834775,96.4186668 9.22180875,97.7420536 C6.97140118,97.4194369 5.84880204,95.0121569 6.01636711,92.6616639 C6.34541976,88.2586047 10.1256183,85.4686289 14.7462468,85.043137 C19.9025626,84.56415 23.964062,88.1433845 23.9996587,92.3349323 C24.0343873,96.8639107 21.4175939,101.213475 16.5660208,100.939415 Z M16.5660208,100.939415" id="pinterest--title-grey-copy-2" fill="#FFFFFF" sketch:type="MSShapeGroup"></path>
        <path d="M16.5660208,140.939415 C15.1534386,140.857115 14.3737835,140.313111 13.5368263,139.381473 C12.7502255,142.319589 12.1129574,145.405023 9.9103015,147 C9.27216509,144.107149 10.1794475,141.477658 10.7750414,139.051449 C11.0910709,137.756868 11.6432542,136.292748 11.6397814,135.365225 C11.6397814,134.938087 11.3497983,134.50848 11.2942327,134.055829 C11.0684974,132.339047 11.7292073,130.342445 13.1964869,130.038757 C15.8497452,129.49393 15.6726298,131.922608 15.1803532,133.644328 C14.6090691,135.66562 13.3458195,138.509914 16.2213403,138.807018 C18.0055176,138.992193 19.3000229,137.441658 19.7619121,136.596435 C20.4356452,135.375924 20.8185271,133.855839 20.8037674,132.089678 C20.7681707,129.11535 18.6002434,127.215862 15.2706473,127.171419 C11.6432542,127.123685 7.4680189,130.284012 8.78683414,134.545515 C9.09591789,135.565214 10.3834775,136.418667 9.22180875,137.742054 C6.97140118,137.419437 5.84880204,135.012157 6.01636711,132.661664 C6.34541976,128.258605 10.1256183,125.468629 14.7462468,125.043137 C19.9025626,124.56415 23.964062,128.143384 23.9996587,132.334932 C24.0343873,136.863911 21.4175939,141.213475 16.5660208,140.939415 Z M16.5660208,140.939415" id="pinterest--title-grey-copy-3" fill="#206FAC" sketch:type="MSShapeGroup"></path>
    </g>
</svg>

<svg width="32" height="232" viewBox="0 0 32 232" xmlns="http://www.w3.org/2000/svg" xmlns:sketch="http://www.bohemiancoding.com/sketch/ns"><title>pinterest</title><g sketch:type="MSPage" fill="none"><path d="M16.566 20.939c-1.413-.082-2.192-.626-3.029-1.558-.787 2.938-1.424 6.024-3.627 7.619-.638-2.893.269-5.522.865-7.949.316-1.295.868-2.759.865-3.686 0-.427-.29-.857-.346-1.309-.226-1.717.435-3.713 1.902-4.017 2.653-.545 2.476 1.884 1.984 3.606-.571 2.021-1.835 4.866 1.041 5.163 1.784.185 3.079-1.365 3.541-2.211.674-1.221 1.057-2.741 1.042-4.507-.036-2.974-2.204-4.874-5.533-4.918-3.627-.048-7.803 3.113-6.484 7.374.309 1.02 1.597 1.873.435 3.197-2.25-.323-3.373-2.73-3.205-5.08.329-4.403 4.109-7.193 8.73-7.619 5.156-.479 9.218 3.1 9.253 7.292.035 4.529-2.582 8.879-7.434 8.604zm0 0" fill="#3A434E" sketch:type="MSShapeGroup"/><path d="M16.566 60.939c-1.413-.082-2.192-.626-3.029-1.558-.787 2.938-1.424 6.024-3.627 7.619-.638-2.893.269-5.522.865-7.949.316-1.295.868-2.759.865-3.686 0-.427-.29-.857-.346-1.309-.226-1.717.435-3.713 1.902-4.017 2.653-.545 2.476 1.884 1.984 3.606-.571 2.021-1.835 4.866 1.041 5.163 1.784.185 3.079-1.365 3.541-2.211.674-1.221 1.057-2.741 1.042-4.507-.036-2.974-2.204-4.874-5.533-4.918-3.627-.048-7.803 3.113-6.484 7.374.309 1.02 1.597 1.873.435 3.197-2.25-.323-3.373-2.73-3.205-5.08.329-4.403 4.109-7.193 8.73-7.619 5.156-.479 9.218 3.1 9.253 7.292.035 4.529-2.582 8.879-7.434 8.604zm0 0" fill="#67737B" sketch:type="MSShapeGroup"/><path d="M16.566 100.939c-1.413-.082-2.192-.626-3.029-1.558-.787 2.938-1.424 6.024-3.627 7.619-.638-2.893.269-5.522.865-7.949.316-1.295.868-2.759.865-3.686 0-.427-.29-.857-.346-1.309-.226-1.717.435-3.713 1.902-4.017 2.653-.545 2.476 1.884 1.984 3.606-.571 2.021-1.835 4.866 1.041 5.163 1.784.185 3.079-1.365 3.541-2.211.674-1.221 1.057-2.741 1.042-4.507-.036-2.974-2.204-4.874-5.533-4.918-3.627-.048-7.803 3.113-6.484 7.374.309 1.02 1.597 1.873.435 3.197-2.25-.323-3.373-2.73-3.205-5.08.329-4.403 4.109-7.193 8.73-7.619 5.156-.479 9.218 3.1 9.253 7.292.035 4.529-2.582 8.879-7.434 8.604zm0 0" fill="#fff" sketch:type="MSShapeGroup"/><path d="M16.566 140.939c-1.413-.082-2.192-.626-3.029-1.558-.787 2.938-1.424 6.024-3.627 7.619-.638-2.893.269-5.522.865-7.949.316-1.295.868-2.759.865-3.686 0-.427-.29-.857-.346-1.309-.226-1.717.435-3.713 1.902-4.017 2.653-.545 2.476 1.884 1.984 3.606-.571 2.021-1.835 4.866 1.041 5.163 1.784.185 3.079-1.365 3.541-2.211.674-1.221 1.057-2.741 1.042-4.507-.036-2.974-2.204-4.874-5.533-4.918-3.627-.048-7.803 3.113-6.484 7.374.309 1.02 1.597 1.873.435 3.197-2.25-.323-3.373-2.73-3.205-5.08.329-4.403 4.109-7.193 8.73-7.619 5.156-.479 9.218 3.1 9.253 7.292.035 4.529-2.582 8.879-7.434 8.604zm0 0" fill="#206FAC" sketch:type="MSShapeGroup"/></g></svg>
